pwa/public/green.svg

<svg width="282" height="126" viewBox="0 0 282 126" fill="none" xmlns="http://www.w3.org/2000/svg">
<path d="M58.3134 82.001V100.067H47.2587V82.7566C47.2587 76.1595 46.1538 74.3052 42.079 74.3052C36.0693 74.3052 34.6841 79.525 34.6841 87.9068V100.067H23.6294V82.7566C23.6294 76.1595 22.5244 74.3052 18.4497 74.3052C12.4399 74.3052 11.0547 79.525 11.0547 87.9068V100.067H0V65.3714H11.0547V68.8763L8.97959 75.0608H11.7446C13.1244 68.8763 16.3045 64.6854 23.0742 64.6854C29.8439 64.6854 32.4041 69.0157 33.439 75.0608H35.444C36.8239 68.8763 39.9338 64.6854 46.7089 64.6854C55.6239 64.6854 58.3188 72.6545 58.3188 81.9956L58.3134 82.001Z" fill="white"/>
<path d="M62.4583 100.067V90.4472H72.338V74.5786L63.8381 74.9912V65.3715L76.9679 64.6855C80.8378 64.4819 82.9776 66.6095 82.9776 70.4574V90.4472H92.8573V100.067H62.4583Z" fill="white"/>
<path d="M108.062 87.2208V100.067H97.0076V65.3714H108.062V69.5623L105.987 75.7468H108.752C110.132 69.5623 114.487 64.6854 121.947 64.6854C130.862 64.6854 136.251 70.5913 136.251 81.3096V100.067H125.197V83.0299C125.197 76.7115 123.332 74.3052 118.012 74.3052C112.002 74.3052 108.062 77.4671 108.062 87.2208Z" fill="white"/>
<path d="M159.051 91.1384L171.9 90.4525V100.072L153.866 100.758C150.066 100.898 147.991 98.6949 147.991 94.9167V74.9912H139.701V65.3714H147.991V58.8439L159.045 55.4087V65.3714H170.515V74.9912H159.045V91.1331L159.051 91.1384Z" fill="white"/>
<g filter="url(#filter0_d_444_339)">
<path d="M183.817 116.375L196.667 115.689V125.309L178.632 125.995C174.832 126.134 172.757 123.931 172.757 120.153V100.228H164.468V91.0313L172.757 90.1899V84.0857L183.812 80.6505V90.6133H195.282V100.233H183.812V116.375H183.817Z" fill="#92FFD5"/>
</g>
<path d="M217.812 89.9272C228.661 89.9272 236.261 96.3154 236.261 106.83V110.265H209.797C209.797 114.247 212.697 117.066 218.987 117.066C222.857 117.066 225.756 115.694 226.446 113.084H237.501C236.811 118.101 231.076 126 218.987 126C205.582 126 199.432 117.345 199.432 107.521C199.432 96.5298 206.962 89.9326 217.812 89.9326V89.9272ZM225.896 104.081C225.896 101.471 223.961 98.861 217.812 98.861C211.662 98.861 209.797 101.471 209.797 104.081H225.896Z" fill="#92FFD5"/>
<path d="M254.916 104.901L265.9 103.39C265.9 100.571 263.69 98.8557 258.92 98.8557C254.501 98.8557 252.011 100.71 252.011 103.872H241.646C241.646 95.0774 249.175 89.9272 258.92 89.9272C268.665 89.9272 276.955 94.5308 276.955 105.935V115.689H282V125.309H274.33C271.015 125.309 269.15 123.454 269.15 120.158V119.472L270.875 115.351H268.11C266.795 121.123 263.41 126 253.671 126C242.821 126 240.956 119.403 240.956 115.834C240.956 109.858 244.551 106.353 254.91 104.912L254.916 104.901ZM255.816 116.375C261.896 116.375 265.906 113.835 265.906 109.574L256.991 110.812C253.676 111.294 252.016 111.771 252.016 113.765C252.016 115.759 253.951 116.375 255.816 116.375Z" fill="#92FFD5"/>
<path d="M75.8899 50.5961C72.9093 50.6122 69.8748 53.0935 69.9664 56.6306C70.058 60.1998 72.9524 62.5686 75.933 62.515C79.5335 62.4507 81.8296 59.546 81.8942 56.5663C81.9697 53.056 78.8705 50.5747 75.8899 50.5908V50.5961Z" fill="#92FFD5"/>
<path d="M85.1066 20.5847C91.3266 20.4775 95.2882 15.4613 95.4014 10.3165C95.5307 4.2552 90.1785 -0.026793 85.0312 2.98706e-06C79.8838 0.026799 74.6448 4.31415 74.8011 10.4183C74.9574 16.576 79.9593 20.6704 85.1066 20.5793V20.5847Z" fill="#92FFD5"/>
<path d="M103.459 21.8762C93.0675 21.9298 82.5087 30.5796 82.8213 42.9057C83.1339 55.3283 93.2238 63.5922 103.616 63.41C116.152 63.1902 124.162 53.0721 124.383 42.6913C124.647 30.4617 113.851 21.8226 103.459 21.8762ZM103.605 56.025C97.719 56.1268 92.0057 51.4375 91.8278 44.3902C91.65 37.4018 97.6435 32.5142 103.529 32.4874C109.42 32.4553 115.527 37.3536 115.376 44.283C115.252 50.162 110.709 55.9017 103.599 56.025H103.605Z" fill="#92FFD5"/>
<path d="M76.4612 32.6804C76.6768 22.7766 67.929 15.7828 59.5207 15.8311C51.1071 15.8793 42.5587 22.8784 42.812 32.8572C43.0653 42.9164 51.2364 49.6047 59.6447 49.46C69.7993 49.2831 76.278 41.0889 76.4612 32.6857V32.6804ZM59.7902 39.6473C55.4028 39.7063 51.1556 36.9677 51.0155 32.8465C50.8861 28.7628 55.3489 25.9063 59.7309 25.8903C64.1183 25.8742 68.6674 28.7306 68.5542 32.7875C68.4626 36.2281 65.0723 39.5776 59.7794 39.6527L59.7902 39.6473Z" fill="#92FFD5"/>
<defs>
<filter id="filter0_d_444_339" x="158.468" y="76.6505" width="40.1993" height="53.3503" filterUnits="userSpaceOnUse" color-interpolation-filters="sRGB">
<feFlood flood-opacity="0" result="BackgroundImageFix"/>
<feColorMatrix in="SourceAlpha" type="matrix" values="0 0 0 0 0 0 0 0 0 0 0 0 0 0 0 0 0 0 127 0" result="hardAlpha"/>
<feOffset dx="-2"/>
<feGaussianBlur stdDeviation="2"/>
<feComposite in2="hardAlpha" operator="out"/>
<feColorMatrix type="matrix" values="0 0 0 0 0 0 0 0 0 0 0 0 0 0 0 0 0 0 0.25 0"/>
<feBlend mode="normal" in2="BackgroundImageFix" result="effect1_dropShadow_444_339"/>
<feBlend mode="normal" in="SourceGraphic" in2="effect1_dropShadow_444_339" result="shape"/>
</filter>
</defs>
</svg>

<svg xmlns="http://www.w3.org/2000/svg" width="282" height="126" fill="none" xmlns:v="https://vecta.io/nano"><path d="M58.313 82.001v18.066H47.26v-17.31c0-6.598-1.105-8.452-5.18-8.452-6.01 0-7.395 5.22-7.395 13.602v12.16H23.63v-17.31c0-6.598-1.105-8.452-5.18-8.452-6.01 0-7.394 5.22-7.394 13.602v12.16H0V65.371h11.055v3.505L8.98 75.061h2.765c1.38-6.185 4.56-10.376 11.33-10.376s9.33 4.33 10.364 10.376h2.005c1.38-6.185 4.49-10.376 11.265-10.376 8.915 0 11.61 7.97 11.61 17.31l-.006.006zm4.145 18.066v-9.62h9.88V74.58l-8.5.412v-9.62l13.13-.685c3.87-.204 6.01 1.923 6.01 5.771v19.99h9.88v9.62h-30.4zm45.604-12.847v12.847H97.008V65.371h11.054v4.191l-2.075 6.185h2.765c1.38-6.185 5.735-11.062 13.195-11.062 8.915 0 14.304 5.906 14.304 16.625v18.757h-11.054V83.03c0-6.319-1.865-8.725-7.185-8.725-6.01 0-9.95 3.162-9.95 12.916zm50.989 3.918l12.849-.686v9.62l-18.034.686c-3.8.14-5.875-2.063-5.875-5.841V74.99h-8.29v-9.62h8.29v-6.527l11.054-3.435v9.962h11.47v9.62h-11.47v16.142l.006.005z" fill="#fff"/><g filter="url(#A)"><path d="m183.817 116.375 12.85-.686v9.62l-18.035.686c-3.8.139-5.875-2.064-5.875-5.842v-19.925h-8.289v-9.197l8.289-.841v-6.104l11.055-3.436v9.963h11.47v9.62h-11.47v16.142h.005Z" fill="#92ffd5"/></g><path d="M217.812 89.927c10.849 0 18.449 6.388 18.449 16.903v3.435h-26.464c0 3.982 2.9 6.801 9.19 6.801 3.87 0 6.769-1.372 7.459-3.982h11.055c-.69 5.017-6.425 12.916-18.514 12.916-13.405 0-19.555-8.655-19.555-18.479 0-10.991 7.53-17.588 18.38-17.588v-.006zm8.084 14.154c0-2.61-1.935-5.22-8.084-5.22s-8.015 2.61-8.015 5.22h16.099zm29.02.82l10.984-1.511c0-2.819-2.21-4.534-6.98-4.534-4.419 0-6.909 1.854-6.909 5.016h-10.365c0-8.795 7.529-13.945 17.274-13.945s18.035 4.604 18.035 16.008v9.754H282v9.62h-7.67c-3.315 0-5.18-1.855-5.18-5.151v-.686l1.725-4.121h-2.765c-1.315 5.772-4.7 10.649-14.439 10.649-10.85 0-12.715-6.597-12.715-10.166 0-5.976 3.595-9.481 13.954-10.922l.006-.011zm.9 11.474c6.08 0 10.09-2.54 10.09-6.801l-8.915 1.238c-3.315.482-4.975.959-4.975 2.953s1.935 2.61 3.8 2.61zM75.89 50.596c-2.98.016-6.015 2.498-5.924 6.035.092 3.569 2.986 5.938 5.967 5.884 3.6-.064 5.897-2.969 5.961-5.949.076-3.51-3.023-5.991-6.004-5.975v.005zm9.217-30.011c6.22-.108 10.181-5.124 10.294-10.269C95.531 4.256 90.18-.027 85.031 0s-10.386 4.314-10.23 10.418c.156 6.158 5.158 10.252 10.306 10.161v.006zm18.352 1.291c-10.392.054-20.95 8.704-20.638 21.03.313 12.422 10.403 20.686 20.795 20.504 12.536-.22 20.546-10.338 20.767-20.719.264-12.23-10.532-20.868-20.924-20.815zm.146 34.149c-5.886.102-11.6-4.587-11.777-11.635-.178-6.988 5.816-11.876 11.701-11.903 5.891-.032 11.998 4.867 11.847 11.796-.124 5.879-4.667 11.619-11.777 11.742h.006zM76.461 32.68c.216-9.903-8.532-16.897-16.94-16.849-8.414.048-16.962 7.047-16.709 17.026.253 10.06 8.424 16.748 16.833 16.603 10.154-.177 16.633-8.371 16.816-16.774v-.006zm-16.67 6.967c-4.388.06-8.635-2.68-8.775-6.8-.13-4.084 4.333-6.94 8.715-6.957 4.387-.016 8.936 2.84 8.823 6.898-.091 3.44-3.482 6.79-8.775 6.865l.011-.006z" fill="#92ffd5"/><defs><filter id="A" x="158.468" y="76.65" width="40.199" height="53.35" filterUnits="userSpaceOnUse" color-interpolation-filters="sRGB"><feFlood flood-opacity="0" result="A"/><feColorMatrix in="SourceAlpha" values="0 0 0 0 0 0 0 0 0 0 0 0 0 0 0 0 0 0 127 0" result="B"/><feOffset dx="-2"/><feGaussianBlur stdDeviation="2"/><feComposite in2="B" operator="out"/><feColorMatrix values="0 0 0 0 0 0 0 0 0 0 0 0 0 0 0 0 0 0 0.25 0"/><feBlend in2="A"/><feBlend in="SourceGraphic"/></filter></defs></svg>
